images/icons/envelope.svg

<svg height="24pt" viewBox="0 0 24 24" width="24pt" xmlns="http://www.w3.org/2000/svg"><path d="m21.75 3h-19.5c-1.242188 0-2.25 1.007812-2.25 2.25v13.5c0 1.242188 1.007812 2.25 2.25 2.25h19.5c1.242188 0 2.25-1.007812 2.25-2.25v-13.5c0-1.242188-1.007812-2.25-2.25-2.25zm0 1.5c.101562 0 .199219.019531.289062.058594l-10.039062 8.699218-10.039062-8.699218c.089843-.039063.1875-.058594.289062-.058594zm0 15h-19.5c-.414062 0-.75-.335938-.75-.75v-12.605469l10.007812 8.671875c.140626.121094.316407.183594.492188.183594s.351562-.0625.492188-.183594l10.007812-8.671875v12.605469c0 .414062-.335938.75-.75.75zm0 0"/></svg>

<?xml version="1.0" encoding="UTF-8"?>
<svg xmlns="http://www.w3.org/2000/svg" xmlns:xlink="http://www.w3.org/1999/xlink" width="24pt" height="24pt" viewBox="0 0 24 24" version="1.1">
<g id="surface1">
<path style=" stroke:none;fill-rule:nonzero;fill:rgb(0%,0%,0%);fill-opacity:1;" d="M 21.75 3 L 2.25 3 C 1.007812 3 0 4.007812 0 5.25 L 0 18.75 C 0 19.992188 1.007812 21 2.25 21 L 21.75 21 C 22.992188 21 24 19.992188 24 18.75 L 24 5.25 C 24 4.007812 22.992188 3 21.75 3 Z M 21.75 4.5 C 21.851562 4.5 21.949219 4.519531 22.039062 4.558594 L 12 13.257812 L 1.960938 4.558594 C 2.050781 4.519531 2.148438 4.5 2.25 4.5 Z M 21.75 19.5 L 2.25 19.5 C 1.835938 19.5 1.5 19.164062 1.5 18.75 L 1.5 6.144531 L 11.507812 14.816406 C 11.648438 14.9375 11.824219 15 12 15 C 12.175781 15 12.351562 14.9375 12.492188 14.816406 L 22.5 6.144531 L 22.5 18.75 C 22.5 19.164062 22.164062 19.5 21.75 19.5 Z M 21.75 19.5 "/>
</g>
</svg>
